Breeze Round Light/actions/16/zoom-out.svg

<svg xmlns="http://www.w3.org/2000/svg" viewBox="0 0 16 16">
  <defs id="defs3051">
<style type="text/css" id="current-color-scheme">.ColorScheme-Text {color:#fcfcfc;}</style>
  </defs>
 <path style="fill:currentColor;fill-opacity:1;stroke:none" 
       d="M 2,4 C 2,6 2,9 2,9 H 3 C 3,9 3,5 3,4 3,3 4,3 4,3 h 8 c 0,0 1,0 1,1 0,1 0,7 0,8 0,1 -1,1 -1,1 H 7 v 1 h 5 c 0,0 2,0 2,-2 0,-2 0,-6 0,-8 C 14,2 12,2 12,2 H 4 C 4,2 2,2 2,4 Z M 11.292969,4 8,7.2929688 V 5 H 7 v 4 h 1 3 V 8 H 8.7070312 L 12,4.7070312 Z M 2,10 v 4 h 4 v -4 z m 1,1 h 2 v 2 H 3 Z"
     class="ColorScheme-Text"
     />
</svg>

<svg xmlns="http://www.w3.org/2000/svg" viewBox="0 0 16 16">
  <defs id="defs3051">
    <style type="text/css" id="current-color-scheme">
      .ColorScheme-Text {
        color:#232629;
      }
      </style>
  </defs>
 <path style="fill:currentColor;fill-opacity:1;stroke:none" 
       d="M 2 2 L 2 3 L 2 4 L 2 7 L 2 9 L 3 9 L 3 7 L 3 4 L 3 3 L 4 3 L 7 3 L 9 3 L 12 3 L 13 3 L 13 4 L 13 7 L 13 9 L 13 12 L 13 13 L 12 13 L 9 13 L 7 13 L 7 14 L 9 14 L 12 14 L 13 14 L 14 14 L 14 12 L 14 9 L 14 7 L 14 4 L 14 3 L 14 2 L 13 2 L 12 2 L 9 2 L 7 2 L 4 2 L 3 2 L 2 2 z M 11.292969 4 L 8 7.2929688 L 8 5 L 7 5 L 7 9 L 8 9 L 11 9 L 11 8 L 8.7070312 8 L 12 4.7070312 L 11.292969 4 z M 2 10 L 2 14 L 6 14 L 6 10 L 2 10 z M 3 11 L 5 11 L 5 13 L 3 13 L 3 11 z "
     class="ColorScheme-Text"
     />
</svg>
